X: 21181
U: Q=!diminuendo(!
U: q=!diminuendo)!
M: 6/8
L: 1/8
K: G
V: 1 name="1"
de |\
dcB d2e | dcB d2c | B2B BAB | cAA A/z/ de |\
dcB d2e | dcB d2c | B2B (cA)A | AGG G/z/ H|]


